!!!OTL: Trinkspruch.
!!!OTL-incipit: PROSALUTE HORUM AMICORUM
!!!COM: Studentenweise
!!!ARE: Europa, Mitteleuropa, Deutschland
!!!SCT: F0510
!!!TXL: @@LAT
!!!YEM: Copyright 1995, estate of Helmut Schaffrath.
**kern	**text	**text	**text
*ICvox	*	*	*
*clefG2	*	*	*
*M2/4	*	*	*
*k[f#]	*	*	*
*G:	*	*	*
=1	=1	=1	=1
!LO:TX:a:t=Solo. Die Wiederholung jeder Strophe Alle.	!	!	!
!LO:TX:a:t=P:only the highest voice encoded:problem	!	!	!
{4.g	1._Pro	2._Pro	3._Pro
8b/	sa-	sa-	sa-
=2	=2	=2	=2
4.a	-lu-	-lu-	-lu-
8cc/	-te	-te	-te
=3	=3	=3	=3
(>8dd/	ho-	Ger-	The-
8cc/)	-rum	.	.
(>8b/	a-	-ma-	-o-
8a)	-mi-	.	-lo-
=4	=4	=4	=4
4b/	-co-	-no-	-go-
8a	-rum,	-rum,	-rum,
8r}	.	.	.
=5	=5	=5	=5
{4.g	nec	pro	pro
8b/	non	sa-	sa-
=6	=6	=6	=6
4.a	a-	-lu-	-lu-
8cc/	-mi-	-te	-te
=7	=7	=7	=7
8dd/L	-ci-	pa-	N.
8ccJ	.	.	.
8b/L	-ti-	-tri-	N.
8aJ	.	.	.
=8	=8	=8	=8
4b/	-ae.	-ae.	.
4r}	.	.	.
=9	=9	=9	=9
{4.g	1._Pro	2._Pro	3._Pro
8b/	sa-	sa-	sa-
=10	=10	=10	=10
4.a	-lu-	-lu-	-lu-
8cc/	-te	-te	-te
=11	=11	=11	=11
(>8dd/	ho-	Ger-	The-
8cc/)	-rum	.	.
(>8b/	a-	-ma-	-o-
8a)	-mi-	.	-lo-
=12	=12	=12	=12
4b/	-co-	-no-	-go-
8a	-rum,	-rum,	-rum,
8r}	.	.	.
=13	=13	=13	=13
{4.g	nec	pro	pro
8b/	non	sa-	sa-
=14	=14	=14	=14
4.a	a-	-lu-	-lu-
8cc/	-mi-	-te	-te
=15	=15	=15	=15
8dd/L	-ci-	pa-	N.
8ccJ	.	.	.
8b/L	-ti-	-tri-	N.
8aJ	.	.	.
=16	=16	=16	=16
4b/	-ae.	-ae.	.
4r}	.	.	.
=17	=17	=17	=17
!LO:TX:a:t=Solo. Die Wiederholung jeder Strophe Alle.	!	!	!
{8dd	4.U-	.	.
8dd	-ni-	.	.
8dd	-ver-	.	.
8dd	-si-	.	.
=18	=18	=18	=18
4ee	-ta-	.	.
4ee	-tis	.	.
=19	=19	=19	=19
[8cc	Lip-	.	.
8cc]	.	.	.
4cc	-si	.	.
=20	=20	=20	=20
8ee/L	-en.	.	.
8ddJ	.	.	.
4dd/}	-sis*	.	.
=21	=21	=21	=21
{8g	nec	.	.
8a	non	.	.
8b/	pro	.	.
8cc/	sa-	.	.
=22	=22	=22	=22
4.dd	-lu-	.	.
8cc/	-te	.	.
=23	=23	=23	=23
4b/	vir-	.	.
4a	-gi-	.	.
=24	=24	=24	=24
4g	-num	.	.
4r}	.	.	.
=25	=25	=25	=25
{8dd	4._U-	.	.
8dd	-ni-	.	.
8dd	-ver-	.	.
8dd	-si-	.	.
=26	=26	=26	=26
4ee	-ta-	.	.
4ee	-tis	.	.
=27	=27	=27	=27
[8cc	Lip-	.	.
8cc]	.	.	.
4cc	-si-	.	.
=28	=28	=28	=28
8ee/L	-en-	.	.
8ddJ	.	.	.
4dd/}	-sis*	.	.
=29	=29	=29	=29
{8g	nec	.	.
8a	non	.	.
8b/	pro	.	.
8cc/	sa-	.	.
=30	=30	=30	=30
4.dd	-lu-	.	.
8cc/	-te	.	.
=31	=31	=31	=31
4b/	vir-	.	.
4a/	-gi-	.	.
=32	=32	=32	=32
4g	-num.	.	.
8r}	.	.	.
!LO:TX:a:t=Einer.	!	!	!
{8d	Ar-	.	.
=33	=33	=33	=33
8.g	-ri-	.	.
16g	-pi-	.	.
8g	-o	.	.
8g	gla-	.	.
=34	=34	=34	=34
8f#	-sel-	.	.
8e	-lu-	.	.
4d}	-lum,	.	.
=35	=35	=35	=35
{8.g	sie	.	.
16g	vel	.	.
8g	sic	.	.
8g	te-	.	.
=36	=36	=36	=36
(8f#L	-nendum,	.	.
8aJ)	.	.	.
8d}	.	.	.
{8d	sub	.	.
=37	=37	=37	=37
{8.g	men-	.	.
16g	-sem	.	.
8g	de-	.	.
8g	-pri-	.	.
=38	=38	=38	=38
(8f#L	-men-	.	.
8aJ)	.	.	.
8d}	-dum,	.	.
{8d	ad	.	.
=39	=39	=39	=39
4g	a-	.	.
8g	-stra	.	.
8g	tol-	.	.
=40	=40	=40	=40
8f#L	-len-	.	.
8aJ	.	.	.
4dd^/}	-dum,	.	.
=41	=41	=41	=41
{4.g	o-	.	.
16g	-ri	.	.
8g	ad-	.	.
8g	-mo-	.	.
=42	=42	=42	=42
8f#L	-ven-	.	.
8aJ	.	.	.
4dd^}	-dum,	.	.
=43	=43	=43	=43
{8b/	at-	.	.
8a	-que	.	.
8b/	ex-	.	.
8cc/	-bi-	.	.
=44	=44	=44	=44
4.dd	-ben-	.	.
8cc/	-dum	.	.
=45	=45	=45	=45
4b/	fun-	.	.
4a	-di-	.	.
=46	=46	=46	=46
4g	-tus.	.	.
4r}	.	.	.
=47||	=47||	=47||	=47||
!LO:TX:a:t=Alle.	!	!	!
{8.g	Vi-	.	.
16g	-vat	.	.
8g	no-	.	.
8g	-ster	.	.
=48	=48	=48	=48
8f#L	N.	.	.
8aJ	.	.	.
4d}	N.	.	.
=49	=49	=49	=49
{4dd	Vi-	.	.
8b/	-vat!	.	.
8r	.	.	.
=50	=50	=50	=50
8.dd	Flo-	.	.
16b/	-re-	.	.
8b/	-at!	.	.
8r	.	.	.
=51	=51	=51	=51
2dd	cres-	.	.
=52	=52	=52	=52
4.b/	-cat!	.	.
8r}	.	.	.
=53	=53	=53	=53
!LO:TX:a:t=Einer.	!	!	!
{8g	At-	.	.
8a	-que	.	.
8b/	vos	.	.
8cc/	cres-	.	.
=54	=54	=54	=54
4.dd	-ca-	.	.
8cc/	-tis	.	.
=55	=55	=55	=55
4b/	in-	.	.
4a	-vi-	.	.
=56	=56	=56	=56
4g	-cem.	.	.
4r}	.	.	.
=57	=57	=57	=57
!LO:TX:a:t=Alle.	!	!	!
{8gg	Er-	.	.
16ff#/L	-go-	.	.
16eeJ	.	.	.
8dd/	-nos	.	.
8cc#/	cres-	.	.
=58	=58	=58	=58
4.dd/	-ca-	.	.
8cc/	-mus	.	.
=59	=59	=59	=59
4b/	in-	.	.
4a	-vi-	.	.
=60	=60	=60	=60
4g	-cem.	.	.
4r}	.	.	.
==	==	==	==
!!!AGN: Studenten -, Trink - Lied, Trinkspruch
!!!ONB: ESAC (Essen Associative Code) Database: FINK
!!!AMT: simple duple
!!!AIN: vox
!!!EED: Helmut Schaffrath
!!!EEV: 1.0
!!!RDF**kern: > = above
!!@@COMMENT:"*) Jurisronsultorum, Mel N. R. wird der Name eines beliebten Profeſſors geſungen."
!!@@END:
!!!GTL: Studentenlieder
!!Text: Studentenlied
!!!source: Musikalischer Hausschatz der Deutschen. Eine Sammlung von über 1000 Liedern und Gesängen mit Singstimmen und Klavierbegleitung. Leipzig, Litterarisches Verlags-Haus.
!!!page: 323
!!!URL-scan: https://www.digitale-sammlungen.de/en/view/bsb11144622?page=300
!!!ENC: Anna Maria Matuszewska
!!!EEV: 2024/01/08
*-	*-	*-	*-